packages/foundations/assets/icons/functional/images/tooling/wrench_16.svg

<svg width="16" height="16" viewBox="0 0 16 16" fill="none" xmlns="http://www.w3.org/2000/svg">
<g clip-path="url(#clip0_2214_8579)">
<path fill-rule="evenodd" clip-rule="evenodd" d="M9.76842 1.43576C8.49539 1.43576 7.27449 1.94148 6.37431 2.84165C5.47414 3.74182 4.96843 4.96272 4.96843 6.23576C4.96843 6.88936 5.07643 7.22376 5.13003 7.47256L1.66603 10.9366C1.59164 11.0109 1.53264 11.0991 1.49238 11.1962C1.45212 11.2933 1.4314 11.3974 1.4314 11.5026C1.4314 11.6077 1.45212 11.7118 1.49238 11.8089C1.53264 11.906 1.59164 11.9943 1.66603 12.0686L3.92283 14.3318C4.27483 14.663 4.77243 14.6198 5.06123 14.3318L8.52042 10.871C8.85162 10.9766 9.42043 11.0358 9.76842 11.0358C11.0415 11.0358 12.2624 10.53 13.1625 9.62987C14.0627 8.7297 14.5684 7.5088 14.5684 6.23576C14.5684 5.62776 14.4404 4.93576 14.194 4.38696C13.9756 3.92456 13.3092 3.82136 12.926 4.20456L10.8948 6.23416L9.76363 5.10296L11.7916 3.07496C11.8855 2.98097 11.9545 2.86507 11.9924 2.73773C12.0303 2.61039 12.0359 2.47562 12.0087 2.34558C11.9815 2.21554 11.9223 2.09433 11.8365 1.99289C11.7507 1.89145 11.6409 1.81298 11.5172 1.76456C10.9599 1.54669 10.3668 1.43516 9.76842 1.43576ZM9.56122 3.04296L8.06683 4.53736C7.91685 4.68738 7.8326 4.89083 7.8326 5.10296C7.8326 5.31509 7.91685 5.51854 8.06683 5.66856L10.3116 7.93176C10.6892 8.25896 11.1724 8.21976 11.4604 7.93176L12.9612 6.43096C12.8148 8.17896 11.4284 9.43576 9.76842 9.43576C9.36043 9.43576 8.88843 9.33336 8.53883 9.19416C8.21163 9.10296 7.93723 9.19256 7.73643 9.39256L4.49483 12.6342L3.36363 11.503L6.60763 8.25896C6.71767 8.14893 6.79323 8.0092 6.82506 7.85687C6.85689 7.70455 6.8436 7.54625 6.78683 7.40136C6.6418 7.0299 6.56772 6.63453 6.56843 6.23576C6.56843 4.57576 7.83403 3.17256 9.56122 3.04296Z" fill="#1A1C1F"/>
</g>
<defs>
<clipPath id="clip0_2214_8579">
<rect width="16" height="16" fill="white"/>
</clipPath>
</defs>
</svg>

<svg xmlns="http://www.w3.org/2000/svg" width="16" height="16" fill="none"><g clip-path="url(#a)"><path fill="#1A1C1F" fill-rule="evenodd" d="M9.768 1.436a4.8 4.8 0 0 0-4.8 4.8c0 .653.108.988.162 1.237l-3.464 3.464a.8.8 0 0 0 0 1.132l2.257 2.263a.813.813 0 0 0 1.138 0l3.46-3.461c.33.106.9.165 1.247.165a4.8 4.8 0 0 0 4.8-4.8c0-.608-.128-1.3-.374-1.849-.218-.462-.885-.566-1.268-.182l-2.031 2.03-1.131-1.132 2.028-2.028a.8.8 0 0 0-.275-1.31 4.8 4.8 0 0 0-1.749-.33m-.207 1.607L8.067 4.537a.8.8 0 0 0 0 1.132l2.245 2.263c.377.327.86.288 1.148 0l1.501-1.501c-.146 1.748-1.533 3.005-3.193 3.005-.408 0-.88-.103-1.23-.242a.79.79 0 0 0-.802.199l-3.241 3.241-1.131-1.131 3.244-3.244a.8.8 0 0 0 .179-.858A3.2 3.2 0 0 1 9.56 3.043" clip-rule="evenodd"/></g><defs><clipPath id="a"><path fill="#fff" d="M0 0h16v16H0z"/></clipPath></defs></svg>
